X:1
T:The X Commandments
T:The X Commandments
T:John Farmer
T:Source : The Whole Book of Psalms---London---Musical Antiquarian Society---1844. First publication : London---Th.Est(e)---1592 Editor : Andé Vierendeels (23/08/16).
T:Notes : Original clefs : C1, C3, C4, F4 Editorial accidentals above the staff Original note values have been halved, excempt m 3, 8,13 and 18
T:©
T:©
T:©
C:John Farmer
Z:©
%%score [ 1 [ 2 3 ] 4 ]
L:1/8
Q:1/4=98
M:4/4
K:C
V:1 treble nm="Soprano" snm="S"
V:2 treble-8 nm="Tenor 1" snm="T 1"
V:3 treble-8 nm="Tenor 2" snm="T 2"
V:4 bass nm="Bass" snm="B"
V:1
 c4 c2 B2 | A2 G2 c2 B2 | c8 || c2 B4 G2 | A2 c2 B4 || B2 A4 A2 | A2 G2 E2 A2 | ^G8 || %8
w: Hark Is- ra-|el and what I|say,|give heed to|un- der- stand,|I am the|Lord thy God that|brought,|
 G2 B3 A A2- | A2 ^G2 A4 | F2 A3 E G2 | F2 E2 E2 G2 | G8 || G2 _B4 A2 | G2 G2 G4 || A2 c3 A B2- | %16
w: thee out of E-|* gypt land,|even from the house|where _ in thou|didst,|in thral- dom|live a slave,|none o- ther Gods|
 BG A3 D E2 | E8 || G4 E2 A2 | A2 ^G2 !fermata!A4 |] %20
w: _ at all _ be-|fore,|my pre- sence|shalt thou have.|
V:2
 e4 e2 e2 | A2 e2 e2 g2 | g8 || g4 G3 G | d2 g2 g4 || d2 f4 d2 | e2 e2 A3 A | B8 || c2 B2 d2 c2 | %9
w: Hark Is- ra-|el and what I|say,|give heed to|un- der- stand,|I am the|Lord thy God that|brought,|thee out of E-|
 e4 ^c4 | d3 A c2 d2 | A2 G2 A c2 B | c8 || c2 f4 f2 | e2 d2 e4 || e2 e4 e2 | d2 f2 eA B2 | ^c8 || %18
w: gypt land,|even from the house|where in thou _ _|didst,|in thral- dom|live a slave,|none o- ther|Gods at _ all be-|fore,|
 e4 c3 d | e3 d !fermata!^c4 |] %20
w: my pre- sence|shalt thou have.|
V:3
 A4 A2 G2 | c2 B2 c2 d2 | e8 || e2 d4 c2 | f2 e2 d4 || d4 c2 A2 | c2 B2 c2 d2 | e8 || e2 d4 A2 | %9
w: Hark Is- ra-|el and what I|say,|give heed to|un- der stand,|I am the|Lord thy God that|brought,|thee out of|
 c2 B2 A4 | A4 A2 G2 | c2 B2 c2 d2 | e8 || e2 d4 c2 | c2 B2 c4 || c2 c4 B2 | B2 A2 A2 ^G2 | A8 || %18
w: E- gypt land,|evev from the|house where in thou|didst,|i, thral- dom|live a slave,|none o- ther|Gods at all be-|fore,|
 B2 c4 A2 | B2 B2 !fermata!A4 |] %20
w: my pre- sence|shalt thou have.|
V:4
 A,,4 A,,2 E,2 | F,2 G,2 A,2 G,2 | C8 || C,2 G,3 F, E,2 | D,2 C,2 G,4 || G,2 F,4 F,2 | %6
w: Hark Is- ra-|el and what I|say,|give heed _ to|un- der- stand,|I am the|
 E,2 E,2 A,2 F,2 | E,8 || C,2 G,2 D,2 F,2 | E,4 A,,4 | D,4 C,2 B,,2 | A,,2 E,2 A,2 G,2 | C,8 || %13
w: Lord thy God that|brought,|thee out of E-|gypt land,|_ _ _|||
 C2 _B,4 F,2 | G,2 G,2 C,4 || A,,4 A,2 E,2 | G,2 D,2 F,2 E,2 | A,,8 || E,4 A,2 F,2 | %19
w: ||none o- ther|Gogs at all be-|fore,|my pre- sence|
 E,2 E,2 !fermata!A,,4 |] %20
w: shalt thou have.|

